Newaita-dark/apps/24/com.github.babluboy.bookworm.svg

<?xml version="1.0" encoding="UTF-8"?>
<svg xmlns="http://www.w3.org/2000/svg" xmlns:xlink="http://www.w3.org/1999/xlink" width="24px" height="24px" viewBox="0 0 24 24" version="1.1">
<defs>
<linearGradient id="linear0" gradientUnits="userSpaceOnUse" x1="254" y1="233.5" x2="254" y2="254.666672" gradientTransform="matrix(0.0468795,0,0,0.0468795,-0.0000028613,10.079089)">
<stop offset="0" style="stop-color:rgb(0%,0%,0%);stop-opacity:0.27451;"/>
<stop offset="1" style="stop-color:rgb(0%,0%,0%);stop-opacity:0;"/>
</linearGradient>
<radialGradient id="radial0" gradientUnits="userSpaceOnUse" cx="450.908936" cy="189.579361" fx="450.908936" fy="189.579361" r="21.166656" gradientTransform="matrix(0.000000130628,-0.0585994,-0.105479,-0.0000000761539,37.609564,47.696499)">
<stop offset="0" style="stop-color:rgb(0%,0%,0%);stop-opacity:0.313726;"/>
<stop offset="0.222222" style="stop-color:rgb(0%,0%,0%);stop-opacity:0.27451;"/>
<stop offset="1" style="stop-color:rgb(0%,0%,0%);stop-opacity:0;"/>
</radialGradient>
<radialGradient id="radial1" gradientUnits="userSpaceOnUse" cx="450.908936" cy="189.579361" fx="450.908936" fy="189.579361" r="21.166656" gradientTransform="matrix(-0.000000130628,0.0585994,0.105479,0.0000000761539,-13.794787,-5.64561)">
<stop offset="0" style="stop-color:rgb(0%,0%,0%);stop-opacity:0.313726;"/>
<stop offset="0.222222" style="stop-color:rgb(0%,0%,0%);stop-opacity:0.27451;"/>
<stop offset="1" style="stop-color:rgb(0%,0%,0%);stop-opacity:0;"/>
</radialGradient>
<radialGradient id="radial2" gradientUnits="userSpaceOnUse" cx="450.908936" cy="189.579361" fx="450.908936" fy="189.579361" r="21.166656" gradientTransform="matrix(-0.000000130628,-0.0585994,0.105479,-0.0000000761539,-13.794787,47.696499)">
<stop offset="0" style="stop-color:rgb(0%,0%,0%);stop-opacity:0.313726;"/>
<stop offset="0.222222" style="stop-color:rgb(0%,0%,0%);stop-opacity:0.27451;"/>
<stop offset="1" style="stop-color:rgb(0%,0%,0%);stop-opacity:0;"/>
</radialGradient>
<radialGradient id="radial3" gradientUnits="userSpaceOnUse" cx="450.908936" cy="189.579361" fx="450.908936" fy="189.579361" r="21.166656" gradientTransform="matrix(0.000000130628,0.0585994,-0.105479,0.0000000761539,37.609563,-5.64561)">
<stop offset="0" style="stop-color:rgb(0%,0%,0%);stop-opacity:0.313726;"/>
<stop offset="0.222222" style="stop-color:rgb(0%,0%,0%);stop-opacity:0.27451;"/>
<stop offset="1" style="stop-color:rgb(0%,0%,0%);stop-opacity:0;"/>
</radialGradient>
<linearGradient id="linear1" gradientUnits="userSpaceOnUse" x1="306.916656" y1="-25.791676" x2="305.954559" y2="-141.414581" gradientTransform="matrix(0.0565122,0,0,0.163059,-4.39051,25.231011)">
<stop offset="0" style="stop-color:rgb(49.411765%,34.117648%,76.078433%);stop-opacity:1;"/>
<stop offset="1" style="stop-color:rgb(58.431375%,45.882353%,80.392158%);stop-opacity:1;"/>
</linearGradient>
<linearGradient id="linear2" gradientUnits="userSpaceOnUse" x1="165.484848" y1="-25.791672" x2="165.484848" y2="-141.414581" gradientTransform="matrix(4.556143,0,0,13.146184,-353.972656,2034.180176)">
<stop offset="0" style="stop-color:rgb(25.882354%,25.882354%,25.882354%);stop-opacity:1;"/>
<stop offset="1" style="stop-color:rgb(38.039216%,38.039216%,38.039216%);stop-opacity:1;"/>
</linearGradient>
<linearGradient id="linear3" gradientUnits="userSpaceOnUse" x1="280.458344" y1="233.5" x2="280.458344" y2="-158.083328" gradientTransform="matrix(0.0468795,0,0,0.0468795,0,10.079087)">
<stop offset="0" style="stop-color:rgb(74.117649%,74.117649%,74.117649%);stop-opacity:1;"/>
<stop offset="1" style="stop-color:rgb(87.843138%,87.843138%,87.843138%);stop-opacity:1;"/>
</linearGradient>
<linearGradient id="linear4" gradientUnits="userSpaceOnUse" x1="1040" y1="1695.118164" x2="1040" y2="175.118134" gradientTransform="matrix(0.264583,0,0,0.264583,-0.0000153333,-214.999756)">
<stop offset="0" style="stop-color:rgb(25.882354%,25.882354%,25.882354%);stop-opacity:1;"/>
<stop offset="1" style="stop-color:rgb(38.039216%,38.039216%,38.039216%);stop-opacity:1;"/>
</linearGradient>
<linearGradient id="linear5" gradientUnits="userSpaceOnUse" x1="105.833344" y1="0.666667" x2="105.833344" y2="-20.499998" gradientTransform="matrix(0.0468795,0,0,0.0468795,-0.000000718819,7.846464)">
<stop offset="0" style="stop-color:rgb(25.882354%,25.882354%,25.882354%);stop-opacity:1;"/>
<stop offset="1" style="stop-color:rgb(38.039216%,38.039216%,38.039216%);stop-opacity:1;"/>
</linearGradient>
<linearGradient id="linear6" gradientUnits="userSpaceOnUse" x1="105.833344" y1="0.666667" x2="105.833344" y2="-20.499998" gradientTransform="matrix(0.0468795,0,0,0.0468795,-0.000000718819,16.032793)">
<stop offset="0" style="stop-color:rgb(25.882354%,25.882354%,25.882354%);stop-opacity:1;"/>
<stop offset="1" style="stop-color:rgb(38.039216%,38.039216%,38.039216%);stop-opacity:1;"/>
</linearGradient>
</defs>
<g id="surface1">
<path style=" stroke:none;fill-rule:nonzero;fill:url(#linear0);" d="M 5.953125 21.027344 L 17.859375 21.027344 L 17.859375 22.019531 L 5.953125 22.019531 Z M 5.953125 21.027344 "/>
<path style=" stroke:none;fill-rule:nonzero;fill:url(#radial0);" d="M 17.859375 21.027344 L 19.84375 21.027344 L 19.84375 20.03125 L 17.859375 20.03125 Z M 17.859375 21.027344 "/>
<path style=" stroke:none;fill-rule:nonzero;fill:url(#radial1);" d="M 5.953125 21.027344 L 3.96875 21.027344 L 3.96875 22.019531 L 5.953125 22.019531 Z M 5.953125 21.027344 "/>
<path style=" stroke:none;fill-rule:nonzero;fill:url(#radial2);" d="M 5.953125 21.027344 L 3.96875 21.027344 L 3.96875 20.03125 L 5.953125 20.03125 Z M 5.953125 21.027344 "/>
<path style=" stroke:none;fill-rule:nonzero;fill:url(#radial3);" d="M 17.859375 21.027344 L 19.84375 21.027344 L 19.84375 22.019531 L 17.859375 22.019531 Z M 17.859375 21.027344 "/>
<path style=" stroke:none;fill-rule:nonzero;fill:url(#linear1);" d="M 4.960938 2.171875 L 18.851562 2.171875 C 19.402344 2.171875 19.84375 2.617188 19.84375 3.164062 L 19.84375 20.03125 C 19.84375 20.582031 19.402344 21.027344 18.851562 21.027344 L 4.960938 21.027344 C 4.414062 21.027344 3.96875 20.582031 3.96875 20.03125 L 3.96875 3.164062 C 3.96875 2.617188 4.414062 2.171875 4.960938 2.171875 Z M 4.960938 2.171875 "/>
<path style="fill-rule:nonzero;fill:url(#linear2);stroke-width:11.338583;stroke-linecap:round;stroke-linejoin:miter;stroke:rgb(12.941177%,12.941177%,12.941177%);stroke-opacity:1;stroke-miterlimit:4;" d="M 399.961827 175.101398 C 355.556616 175.101398 319.969461 210.688553 319.969461 255.093763 L 319.969461 1614.963974 C 319.969461 1659.369184 355.556616 1695.27127 399.961827 1695.27127 L 519.950375 1695.27127 L 519.950375 175.101398 Z M 399.961827 175.101398 " transform="matrix(0.0124035,0,0,0.0124035,0,0)"/>
<path style=" stroke:none;fill-rule:nonzero;fill:rgb(0%,0%,0%);fill-opacity:0.196078;" d="M 4.960938 21.027344 C 4.410156 21.027344 3.96875 20.582031 3.96875 20.03125 L 3.96875 19.910156 C 3.96875 20.457031 4.410156 20.902344 4.960938 20.902344 L 18.851562 20.902344 C 19.402344 20.902344 19.84375 20.457031 19.84375 19.910156 L 19.84375 20.03125 C 19.84375 20.582031 19.402344 21.027344 18.851562 21.027344 Z M 4.960938 21.027344 "/>
<path style=" stroke:none;fill-rule:nonzero;fill:rgb(90.196079%,90.196079%,90.196079%);fill-opacity:0.937239;" d="M 4.960938 2.171875 C 4.410156 2.171875 3.96875 2.613281 3.96875 3.164062 L 3.96875 3.289062 C 3.96875 2.738281 4.410156 2.296875 4.960938 2.296875 L 18.851562 2.296875 C 19.402344 2.296875 19.84375 2.738281 19.84375 3.289062 L 19.84375 3.164062 C 19.84375 2.613281 19.402344 2.171875 18.851562 2.171875 Z M 4.960938 2.171875 "/>
<path style=" stroke:none;fill-rule:nonzero;fill:rgb(12.941177%,12.941177%,12.941177%);fill-opacity:1;" d="M 4.960938 2.101562 C 4.375 2.101562 3.898438 2.578125 3.898438 3.164062 L 3.898438 20.03125 C 3.898438 20.621094 4.375 21.097656 4.960938 21.097656 L 18.851562 21.097656 C 19.441406 21.097656 19.914062 20.621094 19.914062 20.03125 L 19.914062 3.164062 C 19.914062 2.578125 19.441406 2.101562 18.851562 2.101562 Z M 4.960938 2.242188 L 18.851562 2.242188 C 19.367188 2.242188 19.773438 2.652344 19.773438 3.164062 L 19.773438 20.03125 C 19.773438 20.546875 19.367188 20.957031 18.851562 20.957031 L 4.960938 20.957031 C 4.449219 20.957031 4.039062 20.546875 4.039062 20.03125 L 4.039062 3.164062 C 4.039062 2.652344 4.449219 2.242188 4.960938 2.242188 Z M 4.960938 2.242188 "/>
<path style=" stroke:none;fill-rule:nonzero;fill:url(#linear3);" d="M 9.425781 8.125 L 16.867188 8.125 C 17.144531 8.125 17.363281 8.347656 17.363281 8.621094 L 17.363281 9.613281 C 17.363281 9.886719 17.144531 10.109375 16.867188 10.109375 L 9.425781 10.109375 C 9.152344 10.109375 8.929688 9.886719 8.929688 9.613281 L 8.929688 8.621094 C 8.929688 8.347656 9.152344 8.125 9.425781 8.125 Z M 9.425781 8.125 "/>
<path style=" stroke:none;fill-rule:nonzero;fill:rgb(100%,100%,100%);fill-opacity:0.980392;" d="M 9.425781 8.125 C 9.152344 8.125 8.929688 8.347656 8.929688 8.621094 L 8.929688 8.992188 C 8.929688 8.71875 9.152344 8.496094 9.425781 8.496094 L 16.867188 8.496094 C 17.144531 8.496094 17.363281 8.71875 17.363281 8.992188 L 17.363281 8.621094 C 17.363281 8.347656 17.144531 8.125 16.867188 8.125 Z M 9.425781 8.125 "/>
<path style=" stroke:none;fill-rule:nonzero;fill:rgb(0%,0%,0%);fill-opacity:0.235294;" d="M 8.929688 9.613281 L 8.929688 10.109375 C 8.929688 10.386719 9.152344 10.605469 9.425781 10.605469 L 16.867188 10.605469 C 17.144531 10.605469 17.363281 10.386719 17.363281 10.109375 L 17.363281 9.613281 C 17.363281 9.890625 17.144531 10.109375 16.867188 10.109375 L 9.425781 10.109375 C 9.152344 10.109375 8.929688 9.890625 8.929688 9.613281 Z M 8.929688 9.613281 "/>
<path style="fill:none;stroke-width:3;stroke-linecap:round;stroke-linejoin:round;stroke:rgb(12.941177%,12.941177%,12.941177%);stroke-opacity:1;stroke-miterlimit:4;" d="M 201.064133 -41.683218 L 359.798974 -41.683218 C 365.715076 -41.683218 370.381297 -36.933671 370.381297 -31.100895 L 370.381297 -9.936249 C 370.381297 -4.103473 365.715076 0.646073 359.798974 0.646073 L 201.064133 0.646073 C 195.231356 0.646073 190.48181 -4.103473 190.48181 -9.936249 L 190.48181 -31.100895 C 190.48181 -36.933671 195.231356 -41.683218 201.064133 -41.683218 Z M 201.064133 -41.683218 " transform="matrix(0.0468795,0,0,0.0468795,0,10.079087)"/>
<path style="fill:none;stroke-width:8;stroke-linecap:round;stroke-linejoin:round;stroke:url(#linear4);stroke-dasharray:16.000002,16.000002;stroke-dashoffset:7.200001;stroke-miterlimit:4;" d="M 148.152519 -147.506445 L 148.152519 212.292529 L 391.545943 212.292529 C 397.462044 212.292529 402.128265 207.626308 402.128265 201.710206 L 402.128265 -136.924123 C 402.128265 -142.756899 397.462044 -147.506445 391.545943 -147.506445 Z M 148.152519 -147.506445 " transform="matrix(0.0468795,0,0,0.0468795,0,10.079087)"/>
<path style=" stroke:none;fill-rule:nonzero;fill:url(#linear5);" d="M 3.96875 6.886719 L 6.449219 6.886719 L 6.449219 7.878906 L 3.96875 7.878906 Z M 3.96875 6.886719 "/>
<path style=" stroke:none;fill-rule:nonzero;fill:rgb(0%,0%,0%);fill-opacity:0.235294;" d="M 3.96875 7.878906 L 3.96875 8.25 L 6.449219 8.25 L 6.449219 7.878906 Z M 3.96875 7.878906 "/>
<path style=" stroke:none;fill-rule:nonzero;fill:rgb(100%,100%,100%);fill-opacity:0.392157;" d="M 3.96875 6.886719 L 3.96875 7.132812 L 6.449219 7.132812 L 6.449219 6.886719 Z M 3.96875 6.886719 "/>
<path style="fill:none;stroke-width:3;stroke-linecap:round;stroke-linejoin:round;stroke:rgb(12.941177%,12.941177%,12.941177%);stroke-opacity:1;stroke-miterlimit:4;" d="M 84.658598 -20.472602 L 137.570211 -20.472602 L 137.570211 0.692043 L 84.658598 0.692043 Z M 84.658598 -20.472602 " transform="matrix(0.0468795,0,0,0.0468795,-0.000000718819,7.846464)"/>
<path style=" stroke:none;fill-rule:nonzero;fill:url(#linear6);" d="M 3.96875 15.070312 L 6.449219 15.070312 L 6.449219 16.0625 L 3.96875 16.0625 Z M 3.96875 15.070312 "/>
<path style=" stroke:none;fill-rule:nonzero;fill:rgb(0%,0%,0%);fill-opacity:0.235294;" d="M 3.96875 16.0625 L 3.96875 16.4375 L 6.449219 16.4375 L 6.449219 16.0625 Z M 3.96875 16.0625 "/>
<path style=" stroke:none;fill-rule:nonzero;fill:rgb(100%,100%,100%);fill-opacity:0.392157;" d="M 3.96875 15.070312 L 3.96875 15.320312 L 6.449219 15.320312 L 6.449219 15.070312 Z M 3.96875 15.070312 "/>
<path style="fill:none;stroke-width:3;stroke-linecap:round;stroke-linejoin:round;stroke:rgb(12.941177%,12.941177%,12.941177%);stroke-opacity:1;stroke-miterlimit:4;" d="M 84.658598 -20.530951 L 137.570211 -20.530951 L 137.570211 0.633695 L 84.658598 0.633695 Z M 84.658598 -20.530951 " transform="matrix(0.0468795,0,0,0.0468795,-0.000000718819,16.032793)"/>
</g>
</svg>

<svg xmlns="http://www.w3.org/2000/svg" width="24" height="24"><defs><linearGradient id="a" gradientUnits="userSpaceOnUse" x1="254" y1="233.5" x2="254" y2="254.667" gradientTransform="matrix(.04688 0 0 .04688 0 10.08)"><stop offset="0" stop-opacity=".275"/><stop offset="1" stop-opacity="0"/></linearGradient><radialGradient id="b" gradientUnits="userSpaceOnUse" cx="450.909" cy="189.579" fx="450.909" fy="189.579" r="21.167" gradientTransform="matrix(0 -.0586 -.10548 0 37.61 47.696)"><stop offset="0" stop-opacity=".314"/><stop offset=".222" stop-opacity=".275"/><stop offset="1" stop-opacity="0"/></radialGradient><radialGradient id="c" gradientUnits="userSpaceOnUse" cx="450.909" cy="189.579" fx="450.909" fy="189.579" r="21.167" gradientTransform="matrix(0 .0586 .10548 0 -13.795 -5.646)"><stop offset="0" stop-opacity=".314"/><stop offset=".222" stop-opacity=".275"/><stop offset="1" stop-opacity="0"/></radialGradient><radialGradient id="d" gradientUnits="userSpaceOnUse" cx="450.909" cy="189.579" fx="450.909" fy="189.579" r="21.167" gradientTransform="matrix(0 -.0586 .10548 0 -13.795 47.696)"><stop offset="0" stop-opacity=".314"/><stop offset=".222" stop-opacity=".275"/><stop offset="1" stop-opacity="0"/></radialGradient><radialGradient id="e" gradientUnits="userSpaceOnUse" cx="450.909" cy="189.579" fx="450.909" fy="189.579" r="21.167" gradientTransform="matrix(0 .0586 -.10548 0 37.61 -5.646)"><stop offset="0" stop-opacity=".314"/><stop offset=".222" stop-opacity=".275"/><stop offset="1" stop-opacity="0"/></radialGradient><linearGradient id="f" gradientUnits="userSpaceOnUse" x1="306.917" y1="-25.792" x2="305.955" y2="-141.415" gradientTransform="matrix(.05651 0 0 .16306 -4.39 25.231)"><stop offset="0" stop-color="#7e57c2"/><stop offset="1" stop-color="#9575cd"/></linearGradient><linearGradient id="g" gradientUnits="userSpaceOnUse" x1="165.485" y1="-25.792" x2="165.485" y2="-141.415" gradientTransform="matrix(4.55614 0 0 13.14618 -353.973 2034.18)"><stop offset="0" stop-color="#424242"/><stop offset="1" stop-color="#616161"/></linearGradient><linearGradient id="h" gradientUnits="userSpaceOnUse" x1="280.458" y1="233.5" x2="280.458" y2="-158.083" gradientTransform="matrix(.04688 0 0 .04688 0 10.08)"><stop offset="0" stop-color="#bdbdbd"/><stop offset="1" stop-color="#e0e0e0"/></linearGradient></defs><path d="M5.953 21.027H17.86v.993H5.953zm0 0" fill="url(#a)"/><path d="M17.86 21.027h1.984v-.996h-1.985zm0 0" fill="url(#b)"/><path d="M5.953 21.027H3.97v.993h1.984zm0 0" fill="url(#c)"/><path d="M5.953 21.027H3.97v-.996h1.984zm0 0" fill="url(#d)"/><path d="M17.86 21.027h1.984v.993h-1.985zm0 0" fill="url(#e)"/><path d="M4.96 2.172h13.892c.55 0 .992.445.992.992v16.867c0 .551-.442.996-.992.996H4.96a.994.994 0 0 1-.992-.996V3.164c0-.547.445-.992.992-.992zm0 0" fill="url(#f)"/><path d="M399.962 175.101c-44.405 0-79.993 35.588-79.993 79.993v1359.87c0 44.405 35.588 80.307 79.993 80.307H519.95V175.101zm0 0" transform="scale(.0124)" fill="url(#g)" stroke-width="11.339" stroke-linecap="round" stroke="#212121"/><path d="M4.96 21.027a.992.992 0 0 1-.991-.996v-.12c0 .546.441.991.992.991h13.89c.551 0 .993-.445.993-.992v.121c0 .551-.442.996-.992.996zm0 0" fill-opacity=".196"/><path d="M4.96 2.172a.989.989 0 0 0-.991.992v.125c0-.55.441-.992.992-.992h13.89c.551 0 .993.441.993.992v-.125a.989.989 0 0 0-.992-.992zm0 0" fill="#e6e6e6" fill-opacity=".937"/><path d="M4.96 2.102c-.585 0-1.062.476-1.062 1.062v16.867c0 .59.477 1.067 1.063 1.067h13.89c.59 0 1.063-.477 1.063-1.067V3.164c0-.586-.473-1.062-1.062-1.062zm0 .14h13.892c.515 0 .921.41.921.922v16.867a.917.917 0 0 1-.921.926H4.96a.92.92 0 0 1-.922-.926V3.164c0-.512.41-.922.922-.922zm0 0" fill="#212121"/><path d="M9.426 8.125h7.441c.278 0 .496.223.496.496v.992a.494.494 0 0 1-.496.496H9.426a.497.497 0 0 1-.496-.496v-.992c0-.273.222-.496.496-.496zm0 0" fill="url(#h)"/><path d="M9.426 8.125a.497.497 0 0 0-.496.496v.371c0-.273.222-.496.496-.496h7.441c.278 0 .496.223.496.496v-.37a.494.494 0 0 0-.496-.497zm0 0" fill="#fff" fill-opacity=".98"/><path d="M8.93 9.613v.496c0 .278.222.496.496.496h7.441a.492.492 0 0 0 .496-.496v-.496a.492.492 0 0 1-.496.496H9.426a.494.494 0 0 1-.496-.496zm0 0" fill-opacity=".235"/><path d="M9.426 8.125h7.441c.278 0 .496.223.496.496v.992a.494.494 0 0 1-.496.496H9.426a.497.497 0 0 1-.496-.496v-.992c0-.273.222-.496.496-.496zm0 0" fill="none" stroke-width=".14064" stroke-linecap="round" stroke-linejoin="round" stroke="#212121"/></svg>
